flaticon/baby/ball.svg

<svg xmlns="http://www.w3.org/2000/svg" width="32" height="32" viewBox="0 0 24 24">
    <path d="M 23.976562 11.261719 C 23.972656 11.214844 23.96875 11.164062 23.964844 11.113281 C 23.949219 10.882812 23.925781 10.652344 23.894531 10.425781 C 23.894531 10.417969 23.894531 10.414062 23.894531 10.40625 C 23.558594 7.890625 22.445312 5.558594 20.664062 3.703125 L 20.664062 3.695312 L 20.304688 3.335938 L 20.296875 3.335938 C 18.441406 1.554688 16.109375 0.441406 13.59375 0.105469 C 13.585938 0.105469 13.582031 0.105469 13.574219 0.105469 C 13.347656 0.0742188 13.117188 0.0507812 12.886719 0.0351562 C 12.835938 0.03125 12.785156 0.0273438 12.738281 0.0234375 C 12.492188 0.0117188 12.246094 0 12 0 C 5.382812 0 0 5.382812 0 12 C 0 12.257812 0.0117188 12.515625 0.0273438 12.773438 C 0.03125 12.851562 0.0390625 12.925781 0.046875 13.003906 C 0.0625 13.199219 0.0859375 13.394531 0.109375 13.585938 C 0.121094 13.652344 0.125 13.722656 0.136719 13.789062 C 0.171875 14.03125 0.21875 14.269531 0.269531 14.507812 C 0.285156 14.585938 0.304688 14.660156 0.324219 14.738281 C 0.363281 14.910156 0.410156 15.085938 0.457031 15.257812 C 0.480469 15.339844 0.503906 15.425781 0.53125 15.503906 C 0.601562 15.734375 0.675781 15.960938 0.757812 16.183594 C 0.769531 16.207031 0.777344 16.230469 0.785156 16.253906 C 0.863281 16.457031 0.945312 16.65625 1.035156 16.855469 L 1.03125 16.871094 L 1.085938 16.992188 C 1.125 17.074219 1.167969 17.152344 1.210938 17.230469 C 1.25 17.3125 1.289062 17.394531 1.332031 17.476562 C 1.425781 17.65625 1.519531 17.832031 1.621094 18.007812 C 1.703125 18.144531 1.78125 18.28125 1.863281 18.414062 C 1.925781 18.511719 1.992188 18.605469 2.058594 18.703125 C 2.140625 18.828125 2.230469 18.953125 2.320312 19.078125 C 2.375 19.152344 2.425781 19.226562 2.480469 19.296875 C 2.660156 19.53125 2.847656 19.757812 3.042969 19.976562 L 3.039062 19.984375 L 3.238281 20.195312 C 3.261719 20.21875 3.285156 20.242188 3.308594 20.265625 C 3.367188 20.328125 3.425781 20.390625 3.488281 20.449219 C 3.496094 20.457031 3.507812 20.46875 3.515625 20.476562 C 3.515625 20.476562 3.519531 20.480469 3.519531 20.480469 C 3.519531 20.480469 3.523438 20.484375 3.523438 20.484375 C 3.535156 20.496094 3.542969 20.503906 3.550781 20.511719 C 3.613281 20.574219 3.671875 20.632812 3.734375 20.695312 C 3.757812 20.714844 3.78125 20.738281 3.804688 20.761719 L 4.015625 20.960938 L 4.023438 20.957031 C 4.242188 21.152344 4.46875 21.339844 4.703125 21.519531 C 4.773438 21.574219 4.847656 21.625 4.921875 21.679688 C 5.046875 21.769531 5.171875 21.859375 5.296875 21.945312 C 5.394531 22.007812 5.488281 22.074219 5.585938 22.136719 C 5.71875 22.21875 5.855469 22.300781 5.992188 22.378906 C 6.167969 22.480469 6.34375 22.578125 6.523438 22.667969 C 6.605469 22.710938 6.6875 22.75 6.769531 22.792969 C 6.847656 22.832031 6.925781 22.875 7.007812 22.914062 L 7.128906 22.96875 L 7.144531 22.964844 C 7.34375 23.054688 7.542969 23.136719 7.746094 23.214844 C 7.769531 23.222656 7.792969 23.234375 7.816406 23.242188 C 8.039062 23.324219 8.265625 23.398438 8.496094 23.46875 C 8.578125 23.496094 8.660156 23.519531 8.742188 23.542969 C 8.914062 23.589844 9.089844 23.636719 9.261719 23.675781 C 9.339844 23.695312 9.414062 23.714844 9.492188 23.730469 C 9.730469 23.78125 9.96875 23.828125 10.210938 23.863281 C 10.277344 23.875 10.347656 23.882812 10.414062 23.890625 C 10.605469 23.917969 10.800781 23.9375 10.996094 23.953125 C 11.074219 23.960938 11.148438 23.96875 11.226562 23.972656 C 11.484375 23.988281 11.742188 24 12 24 C 18.617188 24 24 18.617188 24 12 C 24 11.753906 23.988281 11.507812 23.976562 11.261719 Z M 4.160156 19.839844 C 4.140625 19.820312 4.121094 19.796875 4.105469 19.777344 C 5.359375 16.8125 7.546875 13.683594 10.296875 10.9375 C 13.140625 8.089844 16.316406 5.894531 19.34375 4.65625 C 18.109375 7.683594 15.910156 10.859375 13.0625 13.703125 C 10.316406 16.453125 7.1875 18.640625 4.222656 19.894531 C 4.203125 19.878906 4.179688 19.859375 4.160156 19.839844 Z M 18.632812 3.117188 C 18.65625 3.136719 18.679688 3.152344 18.703125 3.167969 C 18.835938 3.269531 18.964844 3.378906 19.09375 3.484375 C 19.171875 3.550781 19.25 3.617188 19.328125 3.6875 C 16.09375 4.941406 12.683594 7.265625 9.65625 10.296875 C 6.941406 13.007812 4.765625 16.089844 3.445312 19.046875 C 3.328125 18.902344 3.210938 18.757812 3.097656 18.609375 C 3.070312 18.570312 3.046875 18.535156 3.019531 18.5 C 2.890625 18.320312 2.765625 18.136719 2.644531 17.949219 C 2.632812 17.933594 2.625 17.914062 2.613281 17.898438 C 2.484375 17.691406 2.359375 17.484375 2.246094 17.273438 C 2.242188 17.265625 2.238281 17.257812 2.234375 17.253906 C 2.140625 17.078125 2.054688 16.898438 1.96875 16.71875 C 2.503906 13.164062 4.144531 9.929688 6.71875 7.359375 C 9.65625 4.417969 13.527344 2.679688 17.625 2.449219 C 17.972656 2.65625 18.308594 2.875 18.632812 3.117188 Z M 6.746094 21.765625 C 6.742188 21.761719 6.734375 21.757812 6.726562 21.753906 C 6.515625 21.640625 6.308594 21.515625 6.101562 21.386719 C 6.085938 21.375 6.066406 21.367188 6.050781 21.355469 C 5.863281 21.238281 5.679688 21.109375 5.5 20.980469 C 5.464844 20.953125 5.429688 20.929688 5.390625 20.902344 C 5.242188 20.792969 5.097656 20.671875 4.953125 20.554688 C 7.910156 19.234375 10.992188 17.058594 13.703125 14.34375 C 16.734375 11.316406 19.058594 7.90625 20.3125 4.671875 C 20.382812 4.75 20.449219 4.828125 20.515625 4.90625 C 20.621094 5.035156 20.730469 5.164062 20.832031 5.296875 C 20.847656 5.320312 20.863281 5.34375 20.882812 5.367188 C 21.125 5.691406 21.34375 6.027344 21.550781 6.375 C 21.320312 10.472656 19.582031 14.34375 16.644531 17.28125 C 14.070312 19.855469 10.835938 21.496094 7.28125 22.03125 C 7.101562 21.945312 6.921875 21.859375 6.746094 21.765625 Z M 12 0.90625 C 12.308594 0.90625 12.617188 0.925781 12.921875 0.949219 C 13.027344 0.957031 13.132812 0.96875 13.238281 0.980469 C 13.4375 1.003906 13.632812 1.03125 13.828125 1.066406 C 14.070312 1.105469 14.308594 1.152344 14.542969 1.210938 C 14.660156 1.238281 14.777344 1.261719 14.894531 1.292969 C 15.089844 1.347656 15.285156 1.40625 15.476562 1.472656 C 15.53125 1.488281 15.582031 1.507812 15.632812 1.527344 C 15.785156 1.578125 15.933594 1.636719 16.082031 1.695312 C 12.320312 2.230469 8.816406 3.976562 6.078125 6.71875 C 3.722656 9.070312 2.113281 11.953125 1.359375 15.125 C 1.140625 14.394531 1.003906 13.636719 0.941406 12.859375 C 0.9375 12.820312 0.933594 12.78125 0.933594 12.738281 C 0.917969 12.492188 0.90625 12.246094 0.90625 12 C 0.90625 5.882812 5.882812 0.90625 12 0.90625 Z M 12 23.09375 C 11.753906 23.09375 11.507812 23.082031 11.261719 23.066406 C 11.21875 23.066406 11.179688 23.0625 11.140625 23.058594 C 10.363281 22.996094 9.605469 22.859375 8.875 22.640625 C 12.046875 21.886719 14.929688 20.277344 17.28125 17.921875 C 20.023438 15.183594 21.773438 11.679688 22.304688 7.917969 C 22.367188 8.066406 22.421875 8.214844 22.476562 8.367188 C 22.492188 8.417969 22.511719 8.46875 22.527344 8.523438 C 22.59375 8.714844 22.652344 8.910156 22.707031 9.105469 C 22.738281 9.222656 22.761719 9.339844 22.789062 9.457031 C 22.847656 9.691406 22.894531 9.929688 22.933594 10.171875 C 22.96875 10.367188 22.996094 10.5625 23.019531 10.761719 C 23.03125 10.867188 23.042969 10.972656 23.050781 11.078125 C 23.074219 11.382812 23.09375 11.691406 23.09375 12 C 23.09375 18.117188 18.117188 23.09375 12 23.09375 Z M 12 23.09375"/>
</svg>

<svg xmlns="http://www.w3.org/2000/svg" width="32" height="32" viewBox="0 0 24 24">
    <path d="M23.977 11.262l-.012-.149a9.99 9.99 0 0 0-.07-.687v-.02a11.915 11.915 0 0 0-3.23-6.703v-.008l-.36-.36h-.008a11.915 11.915 0 0 0-6.703-3.23h-.02a9.99 9.99 0 0 0-.687-.07l-.149-.012C12.492.012 12.246 0 12 0 5.383 0 0 5.383 0 12c0 .258.012.516.027.773.004.079.012.153.02.23.015.196.039.392.062.583.012.066.016.137.028.203.035.242.082.48.133.719.015.078.035.152.054.23.04.172.086.348.133.52.023.082.047.168.074.246a12.594 12.594 0 0 0 .254.75c.078.203.16.402.25.601l-.004.016.055.121c.039.082.082.16.125.238.039.082.078.165.121.247.094.18.188.355.29.53.081.138.16.274.241.407.063.098.13.191.196.29.082.124.171.25.261.374.055.074.106.149.16.219.18.234.368.46.563.68l-.004.007.2.211.07.07c.058.063.117.126.18.184l.027.028.004.003.003.004.028.028.183.183c.024.02.047.043.07.067l.212.199.007-.004c.22.195.446.383.68.563.07.054.145.105.219.16.125.09.25.18.375.265.098.063.191.13.289.192a13.923 13.923 0 0 0 .937.531c.082.043.165.082.247.125.078.039.156.082.238.121l.12.055.017-.004c.199.09.398.172.601.25.024.008.047.02.07.027.223.082.45.156.68.227.082.027.164.05.246.074.172.047.348.094.52.133.078.02.152.039.23.054.238.051.477.098.719.133.066.012.137.02.203.028.191.027.387.047.582.062.078.008.152.016.23.02.258.015.516.027.774.027 6.617 0 12-5.383 12-12 0-.246-.012-.492-.023-.738zM4.16 19.84a.782.782 0 0 1-.055-.063c1.254-2.965 3.442-6.093 6.192-8.84 2.844-2.847 6.02-5.042 9.047-6.28-1.235 3.027-3.434 6.202-6.282 9.046-2.746 2.75-5.874 4.938-8.84 6.192a.782.782 0 0 1-.062-.055zM18.633 3.117c.023.02.047.035.07.051.133.102.262.21.39.316.079.067.157.133.235.204-3.234 1.253-6.644 3.578-9.672 6.609-2.715 2.71-4.89 5.793-6.21 8.75a18.97 18.97 0 0 1-.348-.438c-.028-.039-.051-.074-.078-.109-.13-.18-.254-.363-.375-.55-.012-.016-.02-.036-.032-.052a11.34 11.34 0 0 1-.379-.644c-.093-.176-.18-.356-.265-.535.535-3.555 2.176-6.79 4.75-9.36 2.937-2.941 6.808-4.68 10.906-4.91.348.207.684.426 1.008.668zM6.746 21.766a11.34 11.34 0 0 1-.645-.379c-.015-.012-.035-.02-.05-.032a10.512 10.512 0 0 1-.551-.375c-.035-.027-.07-.05-.11-.078-.148-.109-.292-.23-.437-.347 2.957-1.32 6.04-3.496 8.75-6.211 3.031-3.028 5.356-6.438 6.61-9.672.07.078.136.156.203.234.105.13.214.258.316.39.016.024.031.048.05.071.243.324.462.66.669 1.008-.23 4.098-1.969 7.969-4.906 10.906-2.575 2.574-5.81 4.215-9.364 4.75-.18-.086-.36-.172-.535-.265zM12 .906c.309 0 .617.02.922.043.105.008.21.02.316.031.2.024.395.051.59.086.242.04.48.086.715.145.117.027.234.05.352.082a10.017 10.017 0 0 1 .738.234c.152.051.3.11.449.168A17.634 17.634 0 0 0 6.078 6.72a17.564 17.564 0 0 0-4.719 8.406 10.94 10.94 0 0 1-.418-2.266c-.003-.039-.007-.078-.007-.12A11.655 11.655 0 0 1 .906 12C.906 5.883 5.883.906 12 .906zm0 22.188c-.246 0-.492-.012-.738-.028a10.94 10.94 0 0 1-2.387-.426 17.564 17.564 0 0 0 8.406-4.718c2.742-2.738 4.492-6.242 5.024-10.004.062.148.117.297.172.45.015.05.035.1.05.155.067.192.125.387.18.582.031.118.055.235.082.352.059.234.106.473.145.715.035.195.062.39.086.59.011.105.023.21.03.316.024.305.044.613.044.922 0 6.117-4.977 11.094-11.094 11.094zm0 0"/>
</svg>
